X:11157
T: More W Inghean Ghiberlan
S:Irtrad-L,Bruce Olson, 11/97
N:Oswald's CPC, bk. 1, c 1743
Q:40
M:C|
L:1/4
K:Am
A/2G/2|EAA(G/2A/2)|~B2A(d/2c/2)|B3/2A/2 G/2A/2B/2G/2|\
BAA3/2B/2|(G/2A/2)(B/2c/2)dG|~B2AG|(D/2E/2)G(G/2A/2)(B/2G/2)|\
~G~ED2|(D/2E/2)GG(D/2E/2)|G2g2|~e3/2d/2 (e/2g/2)(a/2g/2)|\
~edB2|d(e/2f/2)gd|edgB|c(B/2A/2)e(d/2c/2)|~BAA:|]
